X: 36482
T: Seme Rune Tallanach
R: reel
M: 4/4
K: Adorian
c|:AAA2 GGGB|AAAB GEE2|AAA2 GABd|1 eAAB GEEc:|2 eAAB GEEa||
geeg dedB|geeg agab|geeg dcBd|eAAB GEEa|
geeg dedB|geeg agab|gaeg dcBd|eAAB GEE2|

